icon-themes/breeze_svg/cmd/ar/sc_numberliststyle.svg

<svg viewBox="0 0 16 16" xmlns="http://www.w3.org/2000/svg"><path d="m9 2v1h-6v-1zm0 2v1h-4v-1zm0 4v1h-6v-1zm0 2v1h-2v-1zm-3 0v1h-1.875-.125-1v-1h1 .125zm-1 3v1h-2v-1z" fill="#4d4d4d"/><path d="m12.298828 2-1.298828 1.0253906.410156.5097656.464844-.3691406c.05517-.043776.15331-.1368969.294922-.2773437l-.01367.4160156-.0078.3808594v2.3144531h.851548v-4zm.226563 6c-.202729 0-.385086.018879-.548829.056641-.163742.035963-.314723.08792-.453125.15625-.138401.0683296-.312911.1861317-.523437.3515621l.492187.5351563c.169591-.1294673.332336-.2286999.488282-.2988282.155945-.070128.31673-.1054687.482422-.1054687.157894 0 .283385.039867.376953.1171875.09552.077321.142578.1952778.142578.3535156 0 .1060912-.02157.207742-.06445.3066406-.04289.098899-.113472.2073386-.210938.3242188-.09747.1150821-.305308.322755-.623047.623047l-1.072265 1v.580078h2.988278v-.701172h-1.863281v-.03711l.550781-.478515c.366472-.309283.621375-.547615.765625-.714844.146199-.1672276.25404-.3300431.322266-.4882809.07017-.1600359.105468-.3301049.105468-.5117187 0-.2085862-.05686-.3948065-.169922-.5566406-.11306-.1618343-.271884-.2870453-.476562-.3769532-.204678-.0899078-.441928-.1347656-.708984-.1347656z" fill="#1d99f3"/></svg>

<svg xmlns="http://www.w3.org/2000/svg" viewBox="0 0 16 16">
  <path
     style="fill:#4d4d4d"
     d="M 9,2 V 3 H 3 V 2 Z M 9,4 V 5 H 5 V 4 Z M 9,8 V 9 H 3 V 8 Z m 0,2 v 1 H 7 v -1 z m -3,0 v 1 H 4.125 4 3 v -1 h 1 0.125 z m -1,3 v 1 H 3 v -1 z"
     />
  <path
     style="fill:#1d99f3"
     d="M 12.298828,2 11,3.0253906 11.410156,3.5351562 11.875,3.1660156 c 0.05517,-0.043776 0.15331,-0.1368969 0.294922,-0.2773437 l -0.01367,0.4160156 -0.0078,0.3808594 V 6 H 13 V 2 Z m 0.226563,6 C 12.322662,8 12.140305,8.018879 11.976562,8.056641 11.81282,8.092604 11.661839,8.144561 11.523437,8.212891 11.385036,8.2812206 11.210526,8.3990227 11,8.5644531 l 0.492187,0.5351563 c 0.169591,-0.1294673 0.332336,-0.2286999 0.488282,-0.2988282 0.155945,-0.070128 0.31673,-0.1054687 0.482422,-0.1054687 0.157894,0 0.283385,0.039867 0.376953,0.1171875 0.09552,0.077321 0.142578,0.1952778 0.142578,0.3535156 0,0.1060912 -0.02157,0.207742 -0.06445,0.3066406 -0.04289,0.098899 -0.113472,0.2073386 -0.210938,0.3242188 -0.09747,0.1150821 -0.305308,0.322755 -0.623047,0.623047 l -1.072265,1 V 12 H 14 v -0.701172 h -1.863281 v -0.03711 L 12.6875,10.783203 c 0.366472,-0.309283 0.621375,-0.547615 0.765625,-0.714844 0.146199,-0.1672276 0.25404,-0.3300431 0.322266,-0.4882809 0.07017,-0.1600359 0.105468,-0.3301049 0.105468,-0.5117187 0,-0.2085862 -0.05686,-0.3948065 -0.169922,-0.5566406 C 13.597877,8.3498845 13.439053,8.2246735 13.234375,8.1347656 13.029697,8.0448578 12.792447,8 12.525391,8 Z"
     />
</svg>
